!!!OTL: Cai sang
!!!ARE: Asia, China,ÿJiangxi, Jingdezhen
!! IV, 246
!!!SCT: C1684
!!!YEM: Copyright 1995, estate of Helmut Schaffrath.
**kern
*ICvox
*Ivox
*M2/4
*k[b-]
*F:
{4dd
4cc
=1
4dd
8ff
8r
=2
8.dd
16ff
8a
8cc
=3
4dd
8ff
8r
=4
8cc
8ff
8dd
8cc
=5
8a
4a
8g
=6
2a}
=7
{8cc
8a
8cc
8ff
=8
4dd
8cc
8a
=9
4g
4g
=10
4cc
8cc
8a
=11
8g
8a
8g
8f
=12
8d
4d
8f
=13
2g}
=14
{8aa
8aa
8gg
8aa
=15
4gg
8ff
8r
=16
8dd
8ff
4cc
=17
4dd
8ff
8cc
=18
2dd}
==
!!!AGN: Xiaodiao
!!!AMT: simple duple
!!!AIN: vox
!!!EED: Helmut Schaffrath
!!!EEV: 1.0
*-
